svgs/b_maniac.svg

<svg width="192" height="192" viewBox="0 0 192 192" fill="none" xmlns="http://www.w3.org/2000/svg">
<path d="M74.5562 66.0205V52.359H70.6793C68.2096 52.359 66.2075 50.3569 66.2075 47.8872V32.0615C66.2075 26.5047 70.7122 22 76.2691 22H117.623C123.18 22 127.684 26.5047 127.684 32.0615V47.8872C127.684 50.3569 125.682 52.359 123.213 52.359H119.336V66.0205L166.167 148.276C171.683 157.965 164.686 170 153.538 170H38.5555C27.3007 170 20.3172 157.758 26.0452 148.07L74.5562 66.0205Z" stroke="black" stroke-width="12" stroke-linecap="round" stroke-linejoin="round"/>
<path d="M81.5 152V125.682M81.5 125.682V91.6818C81.5 83.1818 87.6818 77 97.7273 77C107.773 77 112.561 83.5747 112.409 91.6818C112.148 105.591 95.4091 105.591 95.4091 105.591C95.4091 105.591 115.5 105.591 115.5 121.818C115.5 131.864 107.773 138.045 97.7273 138.045C87.6818 138.045 81.5 125.682 81.5 125.682Z" stroke="black" stroke-width="10" stroke-linecap="round" stroke-linejoin="round"/>
</svg>

<svg width="192" height="192" viewBox="0 0 192 192" fill="none" xmlns="http://www.w3.org/2000/svg"><path d="M74.556 66.02V52.36H70.68a4.472 4.472 0 0 1-4.472-4.472V32.062C66.207 26.505 70.712 22 76.27 22h41.354c5.557 0 10.061 4.505 10.061 10.062v15.825a4.472 4.472 0 0 1-4.471 4.472h-3.877V66.02l46.831 82.256c5.516 9.689-1.481 21.724-12.629 21.724H38.555c-11.254 0-18.238-12.242-12.51-21.93l48.511-82.05Z" stroke="#000" stroke-width="12" stroke-linecap="round" stroke-linejoin="round"/><path d="M81.5 152v-26.318m0 0v-34C81.5 83.182 87.682 77 97.727 77c10.046 0 14.834 6.575 14.682 14.682-.261 13.909-17 13.909-17 13.909s20.091 0 20.091 16.227c0 10.046-7.727 16.227-17.773 16.227-10.045 0-16.227-12.363-16.227-12.363Z" stroke="#000" stroke-width="10" stroke-linecap="round" stroke-linejoin="round"/></svg>
